X: 1
T: O'Hanlon's Bridge
M: 6/8
L: 1/8
R: jig
K: Ador
cBA EAA|EAc edc|dBG DGG|DGB edB|
cBA EAA|EAe def|gfg dBG|1 ABG Aed:|2 ABG A2b|]
aee Ace|aec baf|gdd baf|gdB GAB|
cee ABc|Bdd eaf|gfg dBG|1 ABG A2b:|2 ABG Aed|]
